X: 31653
T: Parnell's March
R: jig
M: 6/8
K: Gmajor
|:d2 c|B2 G B2 c d3- d2 c|B2 G B2 c d3- d2 c|
BdB GBd edc BA^G|Add d^cd Add =cec|
B2 G BBc d3- dBG|c2 B cde gag f/g/fe|
d2 B GBd cAF DEF|A2 G GFA G3:|
|:ggf|e/f/ec cBd c3 gfe|d2 B BAc B3 G2 B|
ddd d^cd ed=c BA^G|Add d^cd Add =cec|
B2 G BBc d3- dBG|c2 B cde gag f/g/fe|
d/e/dB GB/c/d cAF D>EF|AG/G/G GFA G3:|

